src/icons/invite.svg

<svg viewBox="0 0 24 24" xmlns="http://www.w3.org/2000/svg">
<path opacity="0.44" d="M12.7692 17.3854L9.69232 20.4623C9.28429 20.8703 8.73089 21.0996 8.15385 21.0996C7.57682 21.0996 7.02342 20.8703 6.61539 20.4623L3.53846 17.3854C3.13044 16.9774 2.90121 16.424 2.90121 15.8469C2.90121 15.2699 3.13044 14.7165 3.53846 14.3085L6.61539 11.2315C7.02342 10.8235 7.57682 10.5943 8.15385 10.5943C8.73089 10.5943 9.28429 10.8235 9.69232 11.2315L10.4615 12.0008L8.15385 14.3085C7.94984 14.5125 7.83523 14.7892 7.83523 15.0777C7.83523 15.3662 7.94984 15.6429 8.15385 15.8469C8.35787 16.0509 8.63457 16.1655 8.92308 16.1655C9.2116 16.1655 9.4883 16.0509 9.69232 15.8469L12 13.5392L12.7692 14.3085C13.1773 14.7165 13.4065 15.2699 13.4065 15.8469C13.4065 16.424 13.1773 16.9774 12.7692 17.3854Z" fill="currentColor"/>
<path d="M20.4615 9.69227L17.3846 12.7692C16.9766 13.1772 16.4231 13.4065 15.8461 13.4065C15.2691 13.4065 14.7157 13.1772 14.3077 12.7692L13.5384 12L15.8461 9.69227C16.0501 9.48826 16.1647 9.21156 16.1647 8.92304C16.1647 8.63452 16.0501 8.35782 15.8461 8.15381C15.6421 7.9498 15.3654 7.83518 15.0769 7.83518C14.7884 7.83518 14.5117 7.9498 14.3077 8.15381L12 10.4615L11.2307 9.69227C10.8227 9.28425 10.5935 8.73084 10.5935 8.15381C10.5935 7.57677 10.8227 7.02337 11.2307 6.61535L14.3077 3.53842C14.7157 3.13039 15.2691 2.90117 15.8461 2.90117C16.4231 2.90117 16.9766 3.13039 17.3846 3.53842L20.4615 6.61535C20.8695 7.02337 21.0988 7.57677 21.0988 8.15381C21.0988 8.73084 20.8695 9.28425 20.4615 9.69227Z" fill="currentColor"/>
</svg>

<svg viewBox="0 0 24 24" xmlns="http://www.w3.org/2000/svg"><path opacity=".44" d="m12.77 17.385-3.078 3.077a2.176 2.176 0 0 1-3.077 0l-3.077-3.077a2.176 2.176 0 0 1 0-3.077l3.077-3.076a2.176 2.176 0 0 1 3.077 0l.77.769-2.308 2.308a1.088 1.088 0 1 0 1.538 1.538L12 13.539l.77.77a2.175 2.175 0 0 1 0 3.076z" fill="currentColor"/><path d="m20.462 9.692-3.077 3.077a2.176 2.176 0 0 1-3.077 0l-.77-.769 2.308-2.308a1.088 1.088 0 0 0-1.538-1.538L12 10.46l-.77-.769a2.176 2.176 0 0 1 0-3.077l3.078-3.077a2.176 2.176 0 0 1 3.077 0l3.076 3.077a2.176 2.176 0 0 1 0 3.077z" fill="currentColor"/></svg>
